Sources/FrostedUI/Resources/Icons.xcassets/sparkle24.imageset/sparkle-24.svg

<svg width="24" height="24" viewBox="0 0 24 24" fill="none" xmlns="http://www.w3.org/2000/svg" data-fui-icon="true">
  <g clip-path="url(#clip0_882_1115)">
    <path
      d="M6.5 11C7.00567 11 7.45703 11.3056 7.64844 11.7666L7.68359 11.8613L8.77246 15.2275L12.1387 16.3164C12.652 16.4825 13 16.9605 13 17.5C13 18.0395 12.652 18.5175 12.1387 18.6836L8.77246 19.7725L7.68359 23.1387C7.51751 23.652 7.0395 24 6.5 24C5.9605 24 5.48249 23.652 5.31641 23.1387L4.22754 19.7725L0.861328 18.6836C0.348031 18.5175 0 18.0395 0 17.5C0 16.9605 0.348031 16.4825 0.861328 16.3164L4.22754 15.2275L5.31641 11.8613L5.35156 11.7666C5.54297 11.3056 5.99433 11 6.5 11ZM5.6543 15.6895C5.50604 16.1472 5.14719 16.506 4.68945 16.6543L2.07422 17.5L4.68945 18.3457C5.14719 18.494 5.50604 18.8528 5.6543 19.3105L6.5 21.9248L7.3457 19.3105C7.49396 18.8528 7.85281 18.494 8.31055 18.3457L10.9248 17.5L8.31055 16.6543C7.85281 16.506 7.49396 16.1472 7.3457 15.6895L6.5 13.0742L5.6543 15.6895ZM16 0C16.6661 2.04594e-07 17.2567 0.429135 17.4629 1.0625L18.6895 4.83008C18.7637 5.05773 18.9423 5.23628 19.1699 5.31055L22.9375 6.53711C23.5709 6.74332 24 7.33391 24 8C24 8.66609 23.5709 9.25668 22.9375 9.46289L19.1699 10.6895C18.9423 10.7637 18.7637 10.9423 18.6895 11.1699L17.4629 14.9375C17.2567 15.5709 16.6661 16 16 16C15.3339 16 14.7433 15.5709 14.5371 14.9375L13.3105 11.1699C13.2363 10.9423 13.0577 10.7637 12.8301 10.6895L9.0625 9.46289C8.42914 9.25668 8 8.66609 8 8C8 7.33391 8.42914 6.74332 9.0625 6.53711L12.8301 5.31055C13.0577 5.23628 13.2363 5.05773 13.3105 4.83008L14.5371 1.0625C14.7433 0.429135 15.3339 0 16 0ZM16 1.5C15.9835 1.5 15.969 1.51068 15.9639 1.52637L14.7373 5.29395C14.5146 5.97789 13.9779 6.51462 13.2939 6.7373L9.52637 7.96387C9.51068 7.96904 9.5 7.98347 9.5 8C9.5 8.01653 9.51068 8.03095 9.52637 8.03613L13.2939 9.2627C13.9779 9.48538 14.5146 10.0221 14.7373 10.7061L15.9639 14.4736C15.969 14.4893 15.9835 14.5 16 14.5C16.0165 14.5 16.031 14.4893 16.0361 14.4736L17.2627 10.7061C17.4854 10.0221 18.0221 9.48538 18.7061 9.2627L22.4736 8.03613C22.4893 8.03096 22.5 8.01653 22.5 8C22.5 7.98347 22.4893 7.96905 22.4736 7.96387L18.7061 6.7373C18.0221 6.51462 17.4854 5.97789 17.2627 5.29395L16.0361 1.52637C16.031 1.51068 16.0165 1.5 16 1.5Z"
      fill="currentColor"
    />
  </g>
  <defs>
    <clipPath id="clip0_882_1115"><path fill="currentColor" d="M0 0H24V24H0z" /></clipPath>
  </defs>
</svg>

<svg xmlns="http://www.w3.org/2000/svg" width="24" height="24" fill="none" data-fui-icon="true" viewBox="0 0 24 24"><g clip-path="url(#a)"><path fill="currentColor" d="M6.5 11c.506 0 .957.306 1.148.767l.036.094 1.088 3.366 3.367 1.09a1.244 1.244 0 0 1 0 2.367l-3.367 1.088-1.088 3.367a1.244 1.244 0 0 1-2.368 0l-1.088-3.366-3.367-1.09a1.244 1.244 0 0 1 0-2.367l3.367-1.088 1.088-3.367.036-.094A1.24 1.24 0 0 1 6.5 11m-.846 4.69a1.5 1.5 0 0 1-.965.964l-2.615.846 2.615.846a1.5 1.5 0 0 1 .965.965l.846 2.614.846-2.614a1.5 1.5 0 0 1 .965-.965l2.614-.846-2.614-.846a1.5 1.5 0 0 1-.965-.964L6.5 13.074zM16 0c.666 0 1.257.43 1.463 1.063l1.226 3.767a.75.75 0 0 0 .48.48l3.768 1.227a1.539 1.539 0 0 1 0 2.926L19.17 10.69a.75.75 0 0 0-.48.48l-1.227 3.768a1.539 1.539 0 0 1-2.926 0L13.31 11.17a.75.75 0 0 0-.48-.48L9.063 9.463a1.539 1.539 0 0 1 0-2.926l3.767-1.226a.75.75 0 0 0 .48-.48l1.227-3.769A1.54 1.54 0 0 1 16 0m0 1.5a.04.04 0 0 0-.036.026l-1.227 3.768a2.25 2.25 0 0 1-1.443 1.443L9.526 7.964a.038.038 0 0 0 0 .072l3.768 1.227c.684.222 1.22.76 1.443 1.443l1.227 3.768a.038.038 0 0 0 .072 0l1.227-3.768c.222-.684.76-1.22 1.443-1.443l3.768-1.227A.04.04 0 0 0 22.5 8q-.001-.026-.026-.036l-3.768-1.227a2.25 2.25 0 0 1-1.443-1.443l-1.227-3.768A.04.04 0 0 0 16 1.5"/></g><defs><clipPath id="a"><path fill="currentColor" d="M0 0h24v24H0z"/></clipPath></defs></svg>
